src/assets/sticker/indonesia.svg

<svg width="100" height="100" viewBox="0 0 100 100" fill="none" xmlns="http://www.w3.org/2000/svg">
<g id="indonesia" clip-path="url(#clip0_793_1802)">
<g id="Frame 1">
<path id="Union" d="M87.4259 11.7963H14.3704C7.42594 11.7963 1.79633 17.4259 1.79633 24.3704V78.2594C1.79633 85.2038 7.42593 90.8335 14.3704 90.8335H87.4259C94.3704 90.8335 100 85.2039 100 78.2594V24.3704C100 17.4259 94.3704 11.7963 87.4259 11.7963Z" fill="#605F5E" fill-opacity="0.3"/>
<path id="Union_2" d="M85.6296 10H12.5741C5.62962 10 0 15.6296 0 22.5741V76.4631C0 83.4076 5.6296 89.0372 12.5741 89.0372H85.6296C92.5741 89.0372 98.2037 83.4076 98.2037 76.4631V22.5741C98.2037 15.6296 92.5741 10 85.6296 10Z" fill="#F5F1EE"/>
<g id="flag-container">
<g clip-path="url(#clip1_793_1802)">
<g id="Indonesia (ID)" clip-path="url(#clip2_793_1802)">
<path id="Vector" d="M11 21H87.64V49.74H11V21Z" fill="#E70011"/>
<path id="Vector_2" d="M10.9998 49.74H87.6398V78.48H10.9998V49.74Z" fill="white"/>
</g>
<g id="filter" style="mix-blend-mode:screen">
<rect x="10.7778" y="20.7778" width="76.6481" height="57.4816" fill="#414141"/>
</g>
</g>
</g>
</g>
</g>
<defs>
<clipPath id="clip0_793_1802">
<rect width="100" height="100" fill="white"/>
</clipPath>
<clipPath id="clip1_793_1802">
<rect x="10.7778" y="20.7778" width="76.6421" height="57.4816" rx="4" fill="white"/>
</clipPath>
<clipPath id="clip2_793_1802">
<rect width="76.64" height="57.48" fill="white" transform="translate(11 21)"/>
</clipPath>
</defs>
</svg>

<svg xmlns="http://www.w3.org/2000/svg" width="100" height="100" fill="none" xmlns:v="https://vecta.io/nano"><g clip-path="url(#A)"><path d="M87.426 11.796H14.37c-6.944 0-12.574 5.63-12.574 12.574v53.889c0 6.945 5.63 12.574 12.574 12.574h73.056c6.945 0 12.574-5.63 12.574-12.574V24.37c0-6.944-5.63-12.574-12.574-12.574z" fill="#605f5e" fill-opacity=".3"/><path d="M85.63 10H12.574C5.63 10 0 15.63 0 22.574v53.889c0 6.945 5.63 12.574 12.574 12.574H85.63c6.945 0 12.574-5.63 12.574-12.574V22.574C98.204 15.63 92.574 10 85.63 10z" fill="#f5f1ee"/><g clip-path="url(#B)"><g clip-path="url(#C)"><path d="M11 21H87.64V49.74H11V21Z" fill="#e70011"/><path d="M11 49.74h76.64v28.74H11V49.74z" fill="#fff"/></g><g style="mix-blend-mode:screen"><path fill="#414141" d="M10.778 20.778h76.648v57.482H10.778z"/></g></g></g><defs><clipPath id="A"><path fill="#fff" d="M0 0h100v100H0z"/></clipPath><clipPath id="B"><rect x="10.778" y="20.778" width="76.642" height="57.482" rx="4" fill="#fff"/></clipPath><clipPath id="C"><path fill="#fff" transform="translate(11 21)" d="M0 0h76.64v57.48H0z"/></clipPath></defs></svg>
